assets/svgs/molecule-book.svg

<svg width="81" height="80" viewBox="0 0 81 80" fill="none" xmlns="http://www.w3.org/2000/svg">
<path d="M40.5 0L68.7843 11.7157L80.5 40L68.7843 68.2843L40.5 80L12.2158 68.2843L0.5 40L12.2158 11.7157L40.5 0Z" fill="#0B6AB7"/>
<path d="M52.2112 22.0063C52.5564 22.0063 52.8362 21.7265 52.8362 21.3813C52.8362 21.0361 52.5564 20.7563 52.2112 20.7563V22.0063ZM51.7495 26.3839C52.0947 26.3839 52.3745 26.1041 52.3745 25.7589C52.3745 25.4137 52.0947 25.1339 51.7495 25.1339V26.3839ZM30.6558 25.1339C30.3106 25.1339 30.0308 25.4137 30.0308 25.7589C30.0308 26.1041 30.3106 26.3839 30.6558 26.3839V25.1339ZM52.2112 20.7563H29.8771V22.0063H52.2112V20.7563ZM29.8771 30.7615H53.9611V29.5115H29.8771V30.7615ZM54.8745 31.675V55.975H56.1245V31.675H54.8745ZM51.6558 59.1938H29.3433V60.4438H51.6558V59.1938ZM26.1245 55.975V25.7589H24.8745V55.975H26.1245ZM39.562 26.3839H51.7495V25.1339H39.562V26.3839ZM30.6558 26.3839H39.562V25.1339H30.6558V26.3839ZM29.3433 59.1938C27.5656 59.1938 26.1245 57.7527 26.1245 55.975H24.8745C24.8745 58.4431 26.8752 60.4438 29.3433 60.4438V59.1938ZM54.8745 55.975C54.8745 57.7527 53.4334 59.1938 51.6558 59.1938V60.4438C54.1238 60.4438 56.1245 58.4431 56.1245 55.975H54.8745ZM53.9611 30.7615C54.4655 30.7615 54.8745 31.1705 54.8745 31.675H56.1245C56.1245 30.4801 55.1559 29.5115 53.9611 29.5115V30.7615ZM29.8771 29.5115C27.8046 29.5115 26.1245 27.8314 26.1245 25.7589H24.8745C24.8745 28.5218 27.1143 30.7615 29.8771 30.7615V29.5115ZM29.8771 20.7563C27.1143 20.7563 24.8745 22.996 24.8745 25.7589H26.1245C26.1245 23.6864 27.8046 22.0063 29.8771 22.0063V20.7563Z" fill="white"/>
<path d="M36.4124 38.9948L36.6976 38.5841C36.5261 38.465 36.2987 38.465 36.1272 38.5841L36.4124 38.9948ZM32.7749 29.8V29.3C32.4988 29.3 32.2749 29.5238 32.2749 29.8H32.7749ZM40.0499 29.8H40.5499C40.5499 29.5238 40.326 29.3 40.0499 29.3V29.8ZM32.9213 41.4192L33.2065 41.8299L32.9213 41.4192ZM39.9035 41.4192L39.6183 41.8299L39.9035 41.4192ZM40.1887 41.0085L36.6976 38.5841L36.1272 39.4055L39.6183 41.8299L40.1887 41.0085ZM36.1272 38.5841L32.6361 41.0085L33.2065 41.8299L36.6976 39.4055L36.1272 38.5841ZM33.2749 41.3426V29.8H32.2749V41.3426H33.2749ZM39.5499 29.8V41.3426H40.5499V29.8H39.5499ZM32.7749 30.3H40.0499V29.3H32.7749V30.3ZM32.6361 41.0085C32.9058 40.8212 33.2749 41.0142 33.2749 41.3426H32.2749C32.2749 41.8215 32.8131 42.103 33.2065 41.8299L32.6361 41.0085ZM39.6183 41.8299C40.0117 42.103 40.5499 41.8215 40.5499 41.3426H39.5499C39.5499 41.0142 39.919 40.8212 40.1887 41.0085L39.6183 41.8299Z" fill="white"/>
</svg>

<svg viewBox="0 0 81 80" fill="none" xmlns="http://www.w3.org/2000/svg">
  <path d="m40.5 0 28.284 11.716L80.5 40 68.784 68.284 40.5 80 12.216 68.284.5 40l11.716-28.284L40.5 0Z" fill="#0B6AB7"/>
  <path d="M52.211 22.006a.625.625 0 1 0 0-1.25v1.25Zm-.462 4.378a.625.625 0 1 0 0-1.25v1.25Zm-21.093-1.25a.625.625 0 1 0 0 1.25v-1.25Zm21.555-4.378H29.877v1.25h22.334v-1.25ZM29.877 30.762h24.084v-1.25H29.877v1.25Zm24.997.913v24.3h1.25v-24.3h-1.25Zm-3.218 27.519H29.343v1.25h22.313v-1.25Zm-25.531-3.219V25.759h-1.25v30.216h1.25Zm13.437-29.591H51.75v-1.25H39.561v1.25Zm-8.906 0h8.906v-1.25h-8.906v1.25Zm-1.313 32.81a3.219 3.219 0 0 1-3.218-3.219h-1.25c0 2.468 2 4.469 4.468 4.469v-1.25Zm25.531-3.219a3.219 3.219 0 0 1-3.218 3.219v1.25c2.468 0 4.468-2 4.468-4.469h-1.25Zm-.913-25.213c.505 0 .913.409.913.913h1.25a2.163 2.163 0 0 0-2.163-2.163v1.25Zm-24.084-1.25a3.753 3.753 0 0 1-3.752-3.753h-1.25a5.003 5.003 0 0 0 5.002 5.003v-1.25Zm0-8.756a5.003 5.003 0 0 0-5.002 5.003h1.25a3.753 3.753 0 0 1 3.752-3.753v-1.25Z" fill="#fff"/>
  <path d="m36.412 38.995.286-.41a.5.5 0 0 0-.57 0l.284.41ZM32.775 29.8v-.5a.5.5 0 0 0-.5.5h.5Zm7.275 0h.5a.5.5 0 0 0-.5-.5v.5ZM32.92 41.42l.285.41-.285-.41Zm6.983 0-.286.41.285-.41Zm.285-.412-3.491-2.424-.57.822 3.49 2.424.57-.822Zm-4.062-2.424-3.49 2.424.57.822 3.49-2.424-.57-.822Zm-2.852 2.759V29.8h-1v11.543h1ZM39.55 29.8v11.543h1V29.8h-1Zm-6.775.5h7.275v-1h-7.275v1Zm-.139 10.708a.407.407 0 0 1 .639.335h-1c0 .478.538.76.931.487l-.57-.822Zm6.982.822a.593.593 0 0 0 .932-.487h-1c0-.329.369-.522.639-.335l-.57.822Z" fill="#fff"/>
</svg>
